build/svg/cmd/32/numberformatdecdecimals.svg

<?xml version="1.0" encoding="UTF-8" standalone="no"?>
<svg
   xmlns:dc="http://purl.org/dc/elements/1.1/"
   xmlns:cc="http://creativecommons.org/ns#"
   xmlns:rdf="http://www.w3.org/1999/02/22-rdf-syntax-ns#"
   xmlns:svg="http://www.w3.org/2000/svg"
   xmlns="http://www.w3.org/2000/svg"
   xmlns:sodipodi="http://sodipodi.sourceforge.net/DTD/sodipodi-0.dtd"
   xmlns:inkscape="http://www.inkscape.org/namespaces/inkscape"
   viewBox="0 0 32 32"
   version="1.1"
   id="svg8"
   sodipodi:docname="numberformatdecdecimals.svg"
   inkscape:export-filename="/home/jupiter007/Libreoffice yaru theme fullcolor/build/cmd/32/numberformatdecdecimals.png"
   inkscape:export-xdpi="95"
   inkscape:export-ydpi="95"
   inkscape:version="0.92.5 (2060ec1f9f, 2020-04-08)">
  <metadata
     id="metadata14">
    <rdf:RDF>
      <cc:Work
         rdf:about="">
        <dc:format>image/svg+xml</dc:format>
        <dc:type
           rdf:resource="http://purl.org/dc/dcmitype/StillImage" />
      </cc:Work>
    </rdf:RDF>
  </metadata>
  <defs
     id="defs12" />
  <sodipodi:namedview
     pagecolor="#ffffff"
     bordercolor="#666666"
     borderopacity="1"
     objecttolerance="10"
     gridtolerance="10"
     guidetolerance="10"
     inkscape:pageopacity="0"
     inkscape:pageshadow="2"
     inkscape:window-width="1920"
     inkscape:window-height="1011"
     id="namedview10"
     showgrid="true"
     inkscape:zoom="20.85965"
     inkscape:cx="9.3115703"
     inkscape:cy="14.687245"
     inkscape:window-x="0"
     inkscape:window-y="32"
     inkscape:window-maximized="1"
     inkscape:current-layer="svg8">
    <inkscape:grid
       type="xygrid"
       id="grid841" />
  </sodipodi:namedview>
  <path
     id="path857"
     d="m 13,9 c -2.209137,0 -4,1.993771 -4,3.5 v 5 c 0,1.506229 1.790863,3.5 4,3.5 2.209135,0 4,-1.993771 4,-3.5 v -5 C 17,10.993771 15.209135,9 13,9 Z m 0,2 c 1.104575,0 2,0.868815 2,1.5 v 4.808594 0.382812 C 15,18.322591 14.104575,19 13,19 11.895427,19 11,18.322591 11,17.691406 V 12.5 C 11,11.868815 11.895427,11 13,11 Z"
     style="opacity:0.6;fill:#000000;stroke:#000000;stroke-width:2;stroke-miterlimit:4;stroke-dasharray:none;stroke-opacity:1"
     inkscape:connector-curvature="0" />
  <rect
     y="19"
     x="5"
     height="2"
     width="2"
     id="rect859"
     style="opacity:0.6;fill:#000000;fill-opacity:1;fill-rule:evenodd;stroke:#000000;stroke-width:2;stroke-linecap:butt;stroke-linejoin:round;stroke-miterlimit:4;stroke-dasharray:none;stroke-opacity:1" />
  <path
     inkscape:connector-curvature="0"
     style="opacity:0.6;fill:#000000;stroke:#000000;stroke-width:2;stroke-miterlimit:4;stroke-dasharray:none;stroke-opacity:1"
     d="m 23,9 c -2.209137,0 -4,1.993771 -4,3.5 v 5 c 0,1.506229 1.790863,3.5 4,3.5 2.209135,0 4,-1.993771 4,-3.5 v -5 C 27,10.993771 25.209135,9 23,9 Z m 0,2 c 1.104575,0 2,0.868815 2,1.5 v 4.808594 0.382812 C 25,18.322591 24.104575,19 23,19 21.895427,19 21,18.322591 21,17.691406 V 12.5 C 21,11.868815 21.895427,11 23,11 Z"
     id="path861" />
  <path
     style="fill:#ffffff;stroke-width:1.3211565"
     d="m 13,9 c -2.209137,0 -4,1.993771 -4,3.5 v 5 c 0,1.506229 1.790863,3.5 4,3.5 2.209135,0 4,-1.993771 4,-3.5 v -5 C 17,10.993771 15.209135,9 13,9 Z m 0,2 c 1.104575,0 2,0.868815 2,1.5 v 4.808594 0.382812 C 15,18.322591 14.104575,19 13,19 11.895427,19 11,18.322591 11,17.691406 V 12.5 C 11,11.868815 11.895427,11 13,11 Z"
     id="path845"
     inkscape:connector-curvature="0" />
  <rect
     style="opacity:1;fill:#ffffff;fill-opacity:1;fill-rule:evenodd;stroke:none;stroke-width:2;stroke-linecap:butt;stroke-linejoin:round;stroke-miterlimit:4;stroke-dasharray:none;stroke-opacity:1"
     id="rect860"
     width="2"
     height="2"
     x="5"
     y="19" />
  <path
     id="path855"
     d="m 23,9 c -2.209137,0 -4,1.993771 -4,3.5 v 5 c 0,1.506229 1.790863,3.5 4,3.5 2.209135,0 4,-1.993771 4,-3.5 v -5 C 27,10.993771 25.209135,9 23,9 Z m 0,2 c 1.104575,0 2,0.868815 2,1.5 v 4.808594 0.382812 C 25,18.322591 24.104575,19 23,19 21.895427,19 21,18.322591 21,17.691406 V 12.5 C 21,11.868815 21.895427,11 23,11 Z"
     style="fill:#ffffff;stroke-width:1.3211565"
     inkscape:connector-curvature="0" />
  <circle
     style="opacity:1;vector-effect:none;fill:#c7162b;fill-opacity:1;stroke:none;stroke-width:4.49999952;stroke-linecap:butt;stroke-linejoin:round;stroke-miterlimit:4;stroke-dasharray:none;stroke-dashoffset:0;stroke-opacity:1"
     id="path2644"
     cy="21.5"
     cx="26.5"
     r="4.5" />
  <path
     inkscape:connector-curvature="0"
     id="path1063"
     overflow="visible"
     font-weight="400"
     style="color:#000000;font-weight:400;line-height:normal;font-family:sans-serif;text-indent:0;text-align:start;text-decoration:none;text-decoration-line:none;text-decoration-style:solid;text-decoration-color:#000000;text-transform:none;white-space:normal;overflow:visible;isolation:auto;mix-blend-mode:normal;fill:#ffffff;fill-opacity:1;marker:none"
     d="m 24.37868,20.085785 1.414213,1.414214 -1.414214,1.414214 0.707107,0.707107 L 26.5,22.207105 27.914213,23.621319 28.62132,22.914212 27.207107,21.499999 28.62132,20.085785 27.914213,19.378678 26.5,20.792892 25.085786,19.378678 Z" />
</svg>

<svg xmlns="http://www.w3.org/2000/svg" viewBox="0 0 32 32"><path d="M13 9c-2.21 0-4 1.994-4 3.5v5c0 1.506 1.79 3.5 4 3.5s4-1.994 4-3.5v-5c0-1.506-1.79-3.5-4-3.5zm0 2c1.105 0 2 .869 2 1.5v5.191c0 .632-.895 1.309-2 1.309s-2-.677-2-1.309V12.5c0-.631.895-1.5 2-1.5z" opacity=".6" stroke="#000" stroke-width="2"/><path opacity=".6" fill-rule="evenodd" stroke="#000" stroke-width="2" stroke-linejoin="round" d="M5 19h2v2H5z"/><path d="M23 9c-2.21 0-4 1.994-4 3.5v5c0 1.506 1.79 3.5 4 3.5s4-1.994 4-3.5v-5c0-1.506-1.79-3.5-4-3.5zm0 2c1.105 0 2 .869 2 1.5v5.191c0 .632-.895 1.309-2 1.309s-2-.677-2-1.309V12.5c0-.631.895-1.5 2-1.5z" opacity=".6" stroke="#000" stroke-width="2"/><path d="M13 9c-2.21 0-4 1.994-4 3.5v5c0 1.506 1.79 3.5 4 3.5s4-1.994 4-3.5v-5c0-1.506-1.79-3.5-4-3.5zm0 2c1.105 0 2 .869 2 1.5v5.191c0 .632-.895 1.309-2 1.309s-2-.677-2-1.309V12.5c0-.631.895-1.5 2-1.5z" fill="#fff"/><path fill="#fff" fill-rule="evenodd" d="M5 19h2v2H5z"/><path d="M23 9c-2.21 0-4 1.994-4 3.5v5c0 1.506 1.79 3.5 4 3.5s4-1.994 4-3.5v-5c0-1.506-1.79-3.5-4-3.5zm0 2c1.105 0 2 .869 2 1.5v5.191c0 .632-.895 1.309-2 1.309s-2-.677-2-1.309V12.5c0-.631.895-1.5 2-1.5z" fill="#fff"/><circle cy="21.5" cx="26.5" r="4.5" fill="#c7162b"/><path overflow="visible" font-weight="400" style="line-height:normal;text-indent:0;text-align:start;text-decoration-line:none;text-decoration-style:solid;text-decoration-color:#000;text-transform:none;white-space:normal;isolation:auto;mix-blend-mode:normal;marker:none" d="M24.379 20.086l1.414 1.414-1.414 1.414.707.707 1.414-1.414 1.414 1.414.707-.707-1.414-1.414 1.414-1.414-.707-.707-1.414 1.414-1.414-1.414z" color="#000" font-family="sans-serif" fill="#fff"/></svg>
